X: 21721
M: C|
L: 1/8
K: A
[|\
d>ed>B c>dc>A | FB {c}BA GB B2 |\
e>ae>c e>fe>c |\
d>ec>d B>cA>B | F>AG>B A2A |]\
z |\
a>aa>A a>Ae>A | a>Ag>A f>Ae>A |
d>d.>B c>cc>A | F<BB>A G>BB>e |\
c//B//A3/ e>A a>Ae>A | f>dB>f e>cA>e |\
d>ec>d B>cA>B | F>BG>E A2A2 |]


